svg/fluentui-system-icons/ic_fluent_building_factory_32_filled.svg

<svg width="32" height="32" viewBox="0 0 32 32" fill="none" xmlns="http://www.w3.org/2000/svg">
<path d="M2.82424 4.8975C2.87949 3.28148 4.20553 2 5.82249 2H8.17913C9.79608 2 11.1221 3.28148 11.1774 4.8975L11.9295 26.8975C11.9875 28.5935 10.6283 30 8.93126 30H5.07035C3.37331 30 2.01412 28.5935 2.0721 26.8975L2.82424 4.8975ZM11.5771 30C12.4407 29.2375 12.9715 28.109 12.9289 26.8633L12.4593 13.1273L19.2937 6.29289C19.485 6.10157 19.7408 5.99995 20.0011 5.99997C20.1299 5.99998 20.2598 6.02488 20.3835 6.07612C20.7571 6.2309 21.0008 6.59554 21.0008 7V13.5858L28.2937 6.29289C28.485 6.10153 28.7409 5.99991 29.0012 5.99997C29.13 6 29.2598 6.0249 29.3835 6.07612C29.4184 6.09061 29.4523 6.10694 29.4849 6.12497C29.8006 6.29953 30.0008 6.63341 30.0008 7V26.5C30.0008 28.4254 28.446 29.9877 26.5234 29.9999L26.5008 30H11.5771ZM25.0008 20.5C25.0008 19.6716 24.3292 19 23.5008 19H18.5008C17.6724 19 17.0008 19.6716 17.0008 20.5V28H25.0008V20.5Z" fill="#212121"/>
</svg>

<svg xmlns="http://www.w3.org/2000/svg" width="32" height="32"><path d="M2.824 4.897A3 3 0 0 1 5.822 2H8.18a3 3 0 0 1 2.998 2.897l.753 22A3 3 0 0 1 8.93 30H5.07a3 3 0 0 1-2.999-3.102l.752-22ZM11.577 30a3.99 3.99 0 0 0 1.352-3.137l-.47-13.736 6.835-6.834A1 1 0 0 1 21 7v6.586l7.293-7.293A1 1 0 0 1 30 7v19.5a3.5 3.5 0 0 1-3.478 3.5H11.577Zm13.424-9.5a1.5 1.5 0 0 0-1.5-1.5h-5a1.5 1.5 0 0 0-1.5 1.5V28h8v-7.5Z"/></svg>
